flags/tm.svg

<svg width="512" height="512" viewBox="0 0 512 512" fill="none" xmlns="http://www.w3.org/2000/svg">
<rect width="512" height="512" fill="var(--flag-palette-dark-green, #496e2d)"/>
<rect x="64" width="128" height="512" fill="var(--flag-palette-bright-red, #d80027)"/>
<path fill-rule="evenodd" clip-rule="evenodd" d="M309.618 105.314L320.563 91.1719L320.022 109.047L336.851 115.084L319.685 120.091L319.145 137.963L309.077 123.187L291.912 128.193L302.855 114.053L292.789 99.2749L309.618 105.314ZM358.498 100.795C388.865 119.811 403.015 157.992 390.42 193.098C377.825 228.204 342.629 248.681 307.099 244.054C311.766 246.977 316.805 249.462 322.202 251.398C362.705 265.93 407.317 244.878 421.849 204.373C436.381 163.871 415.327 119.259 374.824 104.727C369.428 102.792 363.96 101.506 358.498 100.795ZM350.115 137.251L339.17 151.392L322.34 145.353L332.407 160.131L321.463 174.271L338.628 169.263L348.696 184.042L349.238 166.169L366.403 161.161L349.573 155.123L350.115 137.251ZM257.514 122.094L268.459 107.954L267.918 125.827L284.747 131.866L267.582 136.873L267.04 154.745L256.972 139.968L239.808 144.975L250.752 130.834L240.685 116.057L257.514 122.094ZM267.259 160.736L256.315 174.877L239.485 168.839L249.553 183.617L238.607 197.757L255.774 192.751L265.841 207.527L266.382 189.655L283.548 184.648L266.717 178.609L267.259 160.736ZM306.54 192.897L317.485 178.757L316.943 196.63L333.774 202.668L316.608 207.674L316.067 225.548L306 210.77L288.833 215.776L299.779 201.637L289.711 186.859L306.54 192.897Z" fill="var(--flag-palette-white, #eeeeee)"/>
<path d="M112.187 85.2177L89.8262 68.5597V45.0037L112.187 28.3457H143.812L166.173 45.0037V68.5597L143.812 85.2177H112.187Z" fill="var(--flag-palette-white, #eeeeee)"/>
<path d="M128 28.3457H112.187L89.8262 45.0037V56.5207H128V28.3457Z" fill="var(--flag-palette-gold, #ff9811)"/>
<path d="M128 85.2169H143.812L166.173 68.559V56.543H128V85.2169Z" fill="var(--flag-palette-gold, #ff9811)"/>
<path d="M166.955 146.784H157.215V137.045H140.1L127.998 124.943L115.897 137.045H98.782V146.784H89.043V166.262H98.782V176.001H115.896L127.999 188.104L140.1 176.001H157.215V166.262H166.955V146.784Z" fill="var(--flag-palette-dark-green, #496e2d)"/>
<path d="M127.997 167.656C134.144 167.656 139.127 162.673 139.127 156.526C139.127 150.38 134.144 145.396 127.997 145.396C121.85 145.396 116.867 150.38 116.867 156.526C116.867 162.673 121.85 167.656 127.997 167.656Z" fill="var(--flag-palette-bright-red, #d80027)"/>
<path d="M112.187 284.435L89.8262 267.777V244.22L112.187 227.562H143.812L166.173 244.22V267.777L143.812 284.435H112.187Z" fill="var(--flag-palette-dark-green, #496e2d)"/>
<path d="M116.867 244.867H139.128V267.128H116.867V244.867Z" fill="var(--flag-palette-bright-red, #d80027)"/>
<path d="M166.955 345.737H157.215V335.999H140.1L127.998 323.896L115.897 335.999H98.782V345.737H89.043V365.215H98.782V374.954H115.896L127.999 387.057L140.1 374.954H157.215V365.215H166.955V345.737Z" fill="var(--flag-palette-dark-green, #496e2d)"/>
<path d="M127.997 366.61C134.144 366.61 139.127 361.627 139.127 355.48C139.127 349.333 134.144 344.35 127.997 344.35C121.85 344.35 116.867 349.333 116.867 355.48C116.867 361.627 121.85 366.61 127.997 366.61Z" fill="var(--flag-palette-bright-red, #d80027)"/>
<path d="M112.187 483.39L89.8262 466.732V443.176L112.187 426.518H143.812L166.173 443.176V466.732L143.812 483.39H112.187Z" fill="var(--flag-palette-white, #eeeeee)"/>
<path d="M128 426.518H112.187L89.8262 443.176V454.693H128V426.518Z" fill="var(--flag-palette-gold, #ff9811)"/>
<path d="M128 483.389H143.812L166.173 466.731V454.715H128V483.389Z" fill="var(--flag-palette-gold, #ff9811)"/>
</svg>

<svg xmlns="http://www.w3.org/2000/svg" width="512" height="512" fill="none"><path fill="var(--flag-palette-dark-green, #496e2d)" d="M0 0h512v512H0z"/><path fill="var(--flag-palette-bright-red, #d80027)" d="M64 0h128v512H64z"/><path fill="var(--flag-palette-white, #eeeeee)" fill-rule="evenodd" d="m309.6 105.3 11-14.1-.6 17.8 16.9 6-17.2 5-.6 18-10-14.8-17.2 5 11-14.1-10.1-14.8zm48.9-4.5a78 78 0 0 1-51.4 143.3 78 78 0 0 0 114.7-39.7 78 78 0 0 0-63.3-103.6m-8.4 36.5-11 14-16.8-6 10.1 14.8-11 14.2 17.2-5 10.1 14.7.5-17.8 17.2-5-16.8-6zM257.5 122l11-14.1-.6 17.8 16.8 6-17.1 5-.6 18-10-14.8-17.2 5 11-14.2-10.1-14.7zm9.8 38.6-11 14.2-16.8-6 10 14.7-10.9 14.2 17.2-5 10 14.7.6-17.8 17.1-5-16.8-6zm39.2 32.2 11-14.1-.6 17.8 16.9 6-17.2 5-.5 18-10.1-14.8-17.2 5 11-14.2-10-14.7z" clip-rule="evenodd"/><path fill="var(--flag-palette-white, #eeeeee)" d="M112.2 85.2 89.8 68.6V45l22.4-16.7h31.6L166.2 45v23.6l-22.4 16.6z"/><path fill="var(--flag-palette-gold, #ff9811)" d="M128 28.3h-15.8L89.8 45v11.5H128zm0 56.9h15.8l22.4-16.6v-12H128z"/><path fill="var(--flag-palette-dark-green, #496e2d)" d="M167 146.8h-9.8V137h-17.1L128 125l-12.1 12H98.8v9.8H89v19.5h9.8v9.7h17.1l12.1 12.1 12.1-12.1h17.1v-9.7h9.8z"/><path fill="var(--flag-palette-bright-red, #d80027)" d="M128 167.7a11.1 11.1 0 1 0 0-22.3 11.1 11.1 0 0 0 0 22.3"/><path fill="var(--flag-palette-dark-green, #496e2d)" d="m112.2 284.4-22.4-16.6v-23.6l22.4-16.6h31.6l22.4 16.6v23.6l-22.4 16.6z"/><path fill="var(--flag-palette-bright-red, #d80027)" d="M116.9 244.9H139V267h-22z"/><path fill="var(--flag-palette-dark-green, #496e2d)" d="M167 345.7h-9.8V336h-17.1L128 323.9 115.9 336H98.8v9.7H89v19.5h9.8v9.8h17.1l12.1 12 12.1-12h17.1v-9.8h9.8z"/><path fill="var(--flag-palette-bright-red, #d80027)" d="M128 366.6a11.1 11.1 0 1 0 0-22.2 11.1 11.1 0 0 0 0 22.2"/><path fill="var(--flag-palette-white, #eeeeee)" d="m112.2 483.4-22.4-16.7v-23.5l22.4-16.7h31.6l22.4 16.7v23.5l-22.4 16.7z"/><path fill="var(--flag-palette-gold, #ff9811)" d="M128 426.5h-15.8l-22.4 16.7v11.5H128zm0 56.9h15.8l22.4-16.7v-12H128z"/></svg>
